X: 14
T: Fermoy Lasses, The
Z: lusoceltibero
S: https://thesession.org/tunes/219#setting49601
R: reel
M: 4/4
L: 1/8
K: Emin
GE (3EEE BE (3EEE|GE (3EEE BcBA|GE (3EEE BE (3EEE|AFDF AcBA|
GE (3EEE BE (3EEE|GEE2 BcBA|G2GF GBdB|AFDF AcBA||
G2BG dGBG|(3GGG Bd ef g2|G2BG dGBG|AFDF AcBA|
G2 BG dGBG|(3GGG Bd efg2|afge fded|AFDF AcBA||

